packages/swarm-icons/src/icons/line/Letter Filled.svg

<svg xmlns="http://www.w3.org/2000/svg" width="24" height="24" viewBox="0 0 24 24">
  <path fill="#757575" d="M1.64644661,18.6464466 L8.64221685,11.6506764 L1.66551763,5.37164707 C1.65887393,5.36566774 1.65242783,5.35955071 1.64617977,5.35330423 C1.55247394,5.54911884 1.5,5.76843144 1.5,6 L1.5,18 C1.5,18.2315733 1.5524761,18.4508902 1.64618555,18.6467079 Z M2.35329215,19.3538144 C2.54910982,19.4475239 2.76842668,19.5 3,19.5 L21,19.5 C21.2315733,19.5 21.4508902,19.4475239 21.6467079,19.3538144 L14.6464466,12.3535534 C14.6353509,12.3424576 14.6248856,12.3309701 14.6150509,12.3191354 L12.3344824,14.3716471 C12.1443299,14.5427843 11.8556701,14.5427843 11.6655176,14.3716471 L9.38494911,12.3191354 C9.37511438,12.3309701 9.36464914,12.3424576 9.35355339,12.3535534 L2.35355339,19.3535534 Z M22.3538144,18.6467079 C22.4475239,18.4508902 22.5,18.2315733 22.5,18 L22.5,6 C22.5,5.76843144 22.4475261,5.54911884 22.3538202,5.35330423 C22.3475722,5.35955071 22.3411261,5.36566774 22.3344824,5.37164707 L15.3577831,11.6506764 L22.3535534,18.6464466 Z M2.35394792,4.64587193 L12,13.3273188 L21.6460521,4.64587193 C21.4504006,4.55235902 21.2313148,4.5 21,4.5 L3,4.5 C2.76868515,4.5 2.54959941,4.55235902 2.35394792,4.64587193 Z M3,3.5 L21,3.5 C22.3807119,3.5 23.5,4.61928813 23.5,6 L23.5,18 C23.5,19.3807119 22.3807119,20.5 21,20.5 L3,20.5 C1.61928813,20.5 0.5,19.3807119 0.5,18 L0.5,6 C0.5,4.61928813 1.61928813,3.5 3,3.5 Z"/>
</svg>

<svg xmlns="http://www.w3.org/2000/svg" width="24" height="24"><path fill="#757575" d="M1.646 18.646l6.996-6.995-6.976-6.28a.508.508 0 01-.02-.018A1.494 1.494 0 001.5 6v12c0 .232.052.45.146.647zm.707.708c.196.094.415.146.647.146h18c.232 0 .45-.052.647-.146l-7-7a.506.506 0 01-.032-.035l-2.28 2.053a.5.5 0 01-.67 0l-2.28-2.053a.506.506 0 01-.031.035l-7 7zm20-.707c.095-.196.147-.415.147-.647V6c0-.232-.052-.45-.146-.647a.508.508 0 01-.02.019l-6.976 6.279 6.996 6.995zm-20-14.001L12 13.327l9.646-8.681A1.494 1.494 0 0021 4.5H3c-.231 0-.45.052-.646.146zM3 3.5h18A2.5 2.5 0 0123.5 6v12a2.5 2.5 0 01-2.5 2.5H3A2.5 2.5 0 01.5 18V6A2.5 2.5 0 013 3.5z"/></svg>
